!!!COM:	la Rue, Pierre de
!!!CDT:	~1452///-1518/11/20
!!!OPR:	Missa Sancta Dei genitrix
!!!ONM:	2
!!!OTL:	Gloria
!!!AGN:	Mass; Gloria
!!!SCT:	Rue1026b
!!!SCA:	Rue1026b
!!!voices:	4
!!!voices-OPR:	4
**kern	**kern	**kern	**kern
*staff4	*staff3	*staff2	*staff1
*Ivox	*Ivox	*Ivox	*Ivox
*I"Bassus	*I"Tenor	*I"Contra	*I"Discantus
*I'B	*I'T	*I'C	*I'D
*>[A,B,C]	*>[A,B,C]	*>[A,B,C]	*>[A,B,C]
*>A	*>A	*>A	*>A
*clefF4	*clefGv2	*clefGv2	*clefG2
*k[]	*k[]	*k[]	*k[]
*M3/1	*M3/1	*M3/1	*M3/1
*met(O)	*met(O)	*met(O)	*met(O)
!!section: Et in terra pax
!!!OMD: Et in terra pax
=1-	=1-	=1-	=1-
1r	0.r	0.r	0.r
1r	.	.	.
1E	.	.	.
=2	=2	=2	=2
1E	0.r	1r	0.r
2F\	.	1r	.
2F\	.	.	.
[1E	.	1e	.
=3	=3	=3	=3
2E\]	0.r	1e	1r
2C/	.	.	.
1D	.	2f\	1r
.	.	2f\	.
1E	.	[1e	1e
=4	=4	=4	=4
2AA/	0.r	2e\]	1e
2A\	.	2c\	.
2F\	.	1d	2f/
2D\	.	.	2f/
2A\	.	1e	[1e
[2c\	.	.	.
=5	=5	=5	=5
2c\]	1r	2A/	2e/]
4B\	.	1c	2c/
4A\	.	.	.
1G	1r	.	1d
.	.	2B\	.
2C/	1e	1c	1e
[2c\	.	.	.
=6	=6	=6	=6
4c\]	1e	2r	1A
4B\	.	.	.
4A\	.	1c	.
4G\	.	.	.
2F\	2f\	.	1a
2D\	2f\	2d\	.
1E	[1e	2B\	1g
.	.	[2c\	.
=7	=7	=7	=7
1A	2e\]	2c\]	2.e/
.	2c\	4B\	.
.	.	4A/	4f/
2G\	1d	2B\	2g/
2F\	.	2A/	1a
1E	1e	1B	.
.	.	.	2g#i/
=8	=8	=8	=8
1D	[0.A	2r	0a
.	.	2d\	.
2r	.	2.f\	.
2D\	.	.	.
.	.	4e\	.
2.F\	.	2d\	1r
.	.	2c\	.
4E\	.	.	.
=9	=9	=9	=9
2D\	0.A_	2d\	0.r
2C/	.	2A/	.
2D\	.	2d\	.
2AA/	.	2c\	.
2D\	.	2d\	.
2C/	.	2e\	.
=10	=10	=10	=10
2D\	0.A_	2f\	2r
2AA/	.	2.e\	2.a/
2C/	.	.	.
.	.	4d\	4g/
2D\	.	1d	2f/
1AA	.	.	2e/
.	.	2c#i\	2e/
=11	=11	=11	=11
1D	0.A]	2d\	2d/
.	.	1f	1dd
2D\	.	.	.
2D\	.	2f\	2dd\
2D\	.	2f\	2dd\
2D\	.	2f\	2dd\
=12	=12	=12	=12
1AA	0.r	1e	2.cc\
.	.	.	4b\
2.C/	.	1E	2a/
.	.	.	2g/
4BB/	.	.	.
2AA/	.	2F/	2.cc\
2GG/	.	2G/	.
.	.	.	4b\
=13	=13	=13	=13
2.C/	0.r	2A/	4a/
.	.	.	4g/
.	.	2G/	2.cc\
4BB/	.	.	.
4AA/	.	1c	.
4GG/	.	.	4b\
2C/	.	.	1a
2D\	.	1B	.
2E\	.	.	2g#i/
=14	=14	=14	=14
2AA/	0.r	2r	1a
1D	.	1A	.
.	.	.	1e
2C/	.	2A/	.
1D	.	2B-i\	2r
.	.	[2A/	[2a/
=15	=15	=15	=15
1AA	0.r	2A/]	2a/]
.	.	2F/	2a/
2r	.	2G/	2b-i\
1A	.	2A/	1a
.	.	1D	.
2A\	.	.	2f/
=16	=16	=16	=16
2B-\	0.r	2G/	2g/
1A	.	2.F/	2a/
.	.	.	1d
.	.	4D/	.
2G\	.	1d	.
2G\	.	.	1e
2A\	.	2c#i\	.
=17	=17	=17	=17
2D\	0.r	2d\	2f/
2A\	.	2c\	2f/
2A\	.	2c\	2e/
2A\	.	2c\	2.a/
2D\	.	2d\	.
.	.	.	4g/
2A\	.	2c\	4f/
.	.	.	4e/
=18	=18	=18	=18
2B-\	0.r	2d\	2g/
2.A\	.	1c	2.f/
4G\	.	.	4e/
2E\	.	2B\	1e
1F	.	1A	.
.	.	.	2d/
=19	=19	=19	=19
1E	0B	1G	2e/
.	.	.	1g
2r	.	2r	.
1E	.	1e	2g/
.	[1B	.	2g/
2E\	.	2e\	2g/
=20	=20	=20	=20
2E\	1B]	2e\	1g
2E\	.	2e\	.
2AA/	0c	2e\	1a
2A\	.	2e\	.
2A\	.	2e\	2a/
2A\	.	2e\	2a/
=21	=21	=21	=21
1E	0.B	1e	2g/
.	.	.	2e/
2r	.	2d\	2g/
2E\	.	2e\	2g/
2G\	.	2B\	2d/
2G\	.	2d\	2d/
=22	=22	=22	=22
2C/	1G	2c\	2e/
2BB/	.	2d\	1g
1C	0A	2.c\	.
.	.	.	4f/
.	.	4B\	4e/
1D	.	1A	2f/
.	.	.	[2d/
=23	=23	=23	=23
1GG	0.B	1G	2d/]
.	.	.	2d/
2GG/	.	2G/	1d
2GG/	.	2G/	.
2GG/	.	2D/	1d
2GG/	.	2D/	.
=24	=24	=24	=24
1AA	0.E	1A	2c/
.	.	.	1cc
2AA/	.	2A/	.
2AA/	.	2A/	2cc\
2AA/	.	2c\	2a/
2AA/	.	2c\	2a/
=25	=25	=25	=25
1C	[0.E	2c\	2g/
.	.	2G/	2cc\
2GG/	.	2B\	2b\
2AA/	.	2c\	1a
1E	.	1B	.
.	.	.	2g#i/
=26	=26	=26	=26
1AA	0.E_	2r	1a
.	.	2A/	.
2r	.	2G/	1e
2AA/	.	2A/	.
2GG/	.	2B\	1r
[2AA/	.	2A/	.
=27	=27	=27	=27
4AA/]	0.E_	1c	2r
4BB/	.	.	.
4C/	.	.	2.e/
4AA/	.	.	.
4C/	.	2c\	.
4D\	.	.	4f/
2.E\	.	2c\	4g/
.	.	.	4e/
.	.	2B\	4g/
4F\	.	.	4a/
4G\	.	[2E/	2b\
4E\	.	.	.
=28	=28	=28	=28
4G\	0.E]	4E/]	1e
4A\	.	4F/	.
2.B\	.	4G/	.
.	.	4E/	.
.	.	2G/	2r
4A\	.	.	.
1A	.	2A/	2.e/
.	.	1B	.
.	.	.	4f/
2G#i\	.	.	2g/
=29	=29	=29	=29
1A	0F	1A	2c/
.	.	.	2.cc\
1r	.	1.c	.
.	.	.	4b\
.	.	.	1a
1AA	[1E	.	.
.	.	4B\	4g/
.	.	4A/	4f/
=30	=30	=30	=30
1.E	1E]	1B	1g
.	0c	1e	1g
2C/	.	.	.
2F\	.	2.f\	1a
2A\	.	.	.
.	.	8e\L	.
.	.	8f\J	.
=31	=31	=31	=31
1G	1d	0g	0b
1G	0e	.	.
1C	.	1g	[1cc
=32	=32	=32	=32
1.F	[0.Al	2.f\	2cc\]
.	.	.	2b\
.	.	4e\	.
.	.	1c	2a/
2E\	.	.	2g/
1D	.	1d	1f
=33	=33	=33	=33
0.AAl	0.A]	0.cl	0.el
!!LO:LB:i:g=z
=34||	=34||	=34||	=34||
*>B	*>B	*>B	*>B
*clefF4	*clefGv2	*clefGv2	*clefG2
*k[]	*k[]	*k[]	*k[]
*M2/1	*M2/1	*M2/1	*M2/1
*met(C|)	*met(C|)	*met(C|)	*met(C|)
!!section: Qui tollis
!!!OMD: Qui tollis
2.E\	[0e	0r	0r
4F\	.	.	.
2G\	.	.	.
[2A\	.	.	.
=35	=35	=35	=35
2A\]	0e]	0r	0r
4G\	.	.	.
4F\	.	.	.
2E\	.	.	.
2A\	.	.	.
=36	=36	=36	=36
1D	[0f	0r	2.a/
.	.	.	4b\
2r	.	.	2cc\
[2D\	.	.	[2dd\
=37	=37	=37	=37
2D\]	0f]	0r	2dd\]
2D\	.	.	4cc\
.	.	.	4b\
2D\	.	.	2a/
2D\	.	.	2dd\
=38	=38	=38	=38
0C	0e	2.E/	1g
.	.	4F/	.
.	.	2G/	2r
.	.	[2A/	[2cc\
=39	=39	=39	=39
0AA	0c	2A/]	2cc\]
.	.	4G/	2cc\
.	.	4F/	.
.	.	2E/	2cc\
.	.	2A/	2cc\
=40	=40	=40	=40
1GG	[0d	2D/	0b
.	.	1G	.
[1G	.	.	.
.	.	2A/	.
=41	=41	=41	=41
2G\]	0d]	1B	0g
2A\	.	.	.
1B	.	1G	.
=42	=42	=42	=42
1A	0e	1c	1a
2G\	.	2B\	2b\
[2A\	.	4A/	[2cc\
.	.	4B\	.
=43	=43	=43	=43
2A\]	0A	4c\	2cc\]
.	.	4d\	.
2G\	.	1e	2b\
1F	.	.	1a
.	.	2d\	.
=44	=44	=44	=44
0E	0B	0e	1g
.	.	.	2r
.	.	.	2g/
=45	=45	=45	=45
2r	0c	2r	2g/
2C/	.	2e\	2g/
2C/	.	2e\	2g/
2C/	.	2e\	2g/
=46	=46	=46	=46
1G	1B	2d\	2.g/
.	.	2.g\	.
.	.	.	4a/
1E	1G	.	2b\
.	.	4f\	.
.	.	[2e\	[2cc\
=47	=47	=47	=47
1F	0A	2e\]	4cc\]
.	.	.	4a/
.	.	4d\	2.dd\
.	.	4c\	.
1F	.	1d	.
.	.	.	4cc\
.	.	.	4b\
.	.	.	4a/
=48	=48	=48	=48
1E	[0B	2e\	1g
.	.	1g	.
[1G	.	.	1r
.	.	4f\	.
.	.	4e\	.
=49	=49	=49	=49
2G\]	0B_	1d	1.g
2G\	.	.	.
1G	.	2r	.
.	.	[2G/	2g/
=50	=50	=50	=50
1r	0B]	2G/]	2.g/
.	.	2G/	.
.	.	.	8f/L
.	.	.	8e/J
1GG	.	1G	1d
=51	=51	=51	=51
2.AA/	[0E	2r	2.c/
.	.	1c	.
4BB/	.	.	4d/
2C/	.	.	2e/
2AA/	.	2c\	2c/
=52	=52	=52	=52
2.C/	0E_	2c\	2.e/
.	.	2c\	.
4D\	.	.	4f/
2E\	.	1c	2g/
2C/	.	.	2e/
=53	=53	=53	=53
2.E\	0E_	2B\	2.g/
.	.	2.G/	.
4F\	.	.	4a/
2G\	.	.	2b\
.	.	4A/	.
2E\	.	2B\	[2g/
=54	=54	=54	=54
2.G\	0E]	2E/	4g/]
.	.	.	4a/
.	.	2.G/	2b\
4A\	.	.	.
2B\	.	.	2e/
.	.	4A/	.
2E\	.	2B\	[2g/
=55	=55	=55	=55
1G	0r	2E/	4g/]
.	.	.	4a/
.	.	1e	4b\
.	.	.	4g/
2.F\	.	.	1a
.	.	2d\	.
4E\	.	.	.
=56	=56	=56	=56
1E	3B\V	0e	0g
.	3B\	.	.
.	3B\Z	.	.
3E\V	3c\V	.	.
3E\	3B\	.	.
3E\Z	3G/Z	.	.
=57	=57	=57	=57
3F\V	3A/V	1r	0r
3E\	3B\	.	.
3C/Z	3E/Z	.	.
3D\V	2B\	2r	.
3E\	.	.	.
.	2c\	2e\	.
3AA/Z	.	.	.
=58	=58	=58	=58
1E	2B\	2e\	1g
.	2G/	2e\	.
2F\	1A	2c\	2f/
2F\	.	2d\	2a/
=59	=59	=59	=59
2E\	0B	2e\	2g/
2.G\	.	2E/	2g/
.	.	2G/	2d/
4F\	.	.	.
4E\	.	2G/	[2g/
4D\	.	.	.
=60	=60	=60	=60
1C	1E	2G/	4g/]
.	.	.	4f/
.	.	2G/	4e/
.	.	.	4d/
2r	2F/	1A	2c/
2AA/	2E/	.	2cc\
=61	=61	=61	=61
2D\	0F	2r	2b\
2D\	.	4D/	1a
.	.	4E/	.
2D\	.	4F/	.
.	.	4G/	.
2D\	.	[2A/	4g/
.	.	.	4f/
=62	=62	=62	=62
1C	1G	4A/]	2e/
.	.	4G/	.
.	.	1G	1cc
1AA	1A	.	.
.	.	2F#i/	4b\
.	.	.	4a/
=63	=63	=63	=63
0GG	0D	1G	0b
.	.	2r	.
.	.	2G/	.
=64	=64	=64	=64
2r	0r	2G/	0r
2C/	.	2G/	.
2C/	.	2A/	.
2C/	.	2A/	.
=65	=65	=65	=65
2D\	0r	0B	0r
2D\	.	.	.
[1E	.	.	.
=66	=66	=66	=66
1E]	0r	1G	0r
1C	.	1G	.
=67	=67	=67	=67
1C	0r	1.A	0r
[1D	.	.	.
.	.	2G/	.
=68	=68	=68	=68
2D\]	0r	2F/	0r
2C/	.	2E/	.
2BB/	.	1D	.
2AA/	.	.	.
=69	=69	=69	=69
2GG/	0B	2D/	0g
2.G\	.	2.E/	.
4F\	.	4F/	.
4E\	.	[2G/	.
4D\	.	.	.
=70	=70	=70	=70
2.C/	0c	2G/]	1g
.	.	4F#i/	.
4BB/	.	4E/	.
1AA	.	1F#i	1a
=71	=71	=71	=71
0GG	0B	1.G	1d
.	.	.	[1dd
.	.	4F/	.
.	.	4E/	.
=72	=72	=72	=72
1BB	1G	1D	1dd]
1AA	1A	2E/	1cc
.	.	2C/	.
=73	=73	=73	=73
0GG	0B	1G	0dd
.	.	1D	.
=74	=74	=74	=74
0AAl	0El	0Al	0ccl
!!LO:LB:i:g=z
=75||	=75||	=75||	=75||
*>C	*>C	*>C	*>C
*clefF4	*clefGv2	*clefGv2	*clefG2
*k[]	*k[]	*k[]	*k[]
*M3/1	*M3/1	*M3/1	*M3/1
*met(O|)	*met(O|)	*met(O|)	*met(O|)
!!section: Cum Sancto Spiritu
!!!OMD: Cum Sancto Spiritu
1E	0.r	0.r	0.r
1F	.	.	.
2E\	.	.	.
2C/	.	.	.
=76	=76	=76	=76
2D\	1r	1B	0.r
2E\	.	.	.
2AA/	1r	1c	.
2A\	.	.	.
4G\	1B	2B\	.
4F\	.	.	.
4E\	.	2G/	.
4D\	.	.	.
=77	=77	=77	=77
2C/	2c\	2A/	0.r
1G	1B	2B\	.
.	.	2E/	.
2E\	2G/	1e	.
2C/	2A/	.	.
[2G\	2B\	2d\	.
=78	=78	=78	=78
4G\]	0E	1e	1b
4F\	.	.	.
4E\	.	.	.
4D\	.	.	.
2C/	.	1r	1cc
2AA/	.	.	.
1E	1r	1e	2b\
.	.	.	2g/
=79	=79	=79	=79
2A\	0.r	2f\	2a/
2G\	.	1e	2b\
2.A\	.	.	2e/
.	.	2c\	1a
4G\	.	.	.
2F\	.	2d\	.
2E\	.	2e\	2g#i/
=80	=80	=80	=80
2.F\	0.r	2A/	1a
.	.	4d\	.
4E\	.	4c\	.
2D\	.	4B\	1r
.	.	4A/	.
2C/	.	1A	.
1BB	.	.	1dd
.	.	2G#i/	.
=81	=81	=81	=81
2AA/	0.r	2.A/	2.cc\
2A\	.	.	.
.	.	4B\	4b\
2F\	.	4c\	2a/
.	.	4d\	.
2G\	.	1e	2g/
2A\	.	.	1f
2B\	.	2d\	.
=82	=82	=82	=82
2.c\	2r	2e\	1e
.	2e\	1c	.
4B\	.	.	.
2A\	2f\	.	1r
2G\	2.e\	2B\	.
1F	.	2.A/	2r
.	4c\	.	.
.	2d\	.	[2a/
.	.	4B\	.
=83	=83	=83	=83
0E	0e	2c\	4a/]
.	.	.	4g/
.	.	1B	1g
.	.	2G/	2.cc\
1F	1A	1c	.
.	.	.	4b\
.	.	.	[2a/
=84	=84	=84	=84
1D	0B	1d	2a/]
.	.	.	4g#i/
.	.	.	4f#i/
1E	.	2G/	1g#i
.	.	2g\	.
1AA	1c	2f\	1a
.	.	[2e\	.
=85	=85	=85	=85
0E	1.B	2e\]	2.g/
.	.	2.g\	.
.	.	.	4a/
.	.	.	2b\
.	.	4f\	.
.	2G/	1e	1cc
1F	1A	.	.
.	.	2d\	4b\
.	.	.	4a/
=86	=86	=86	=86
0E	0.B	0e	[0.gl
[1G	.	1d	.
=87	=87	=87	=87
2G\]	[0.El	2c\	0.g_
2C/	.	1e	.
1C	.	.	.
.	.	4d\	.
.	.	4c\	.
2.G\	.	2B\	.
.	.	2c\	.
4E\	.	.	.
=88	=88	=88	=88
*	*	*^	*
0.El	0.E]	0.Bl\	0.el/	0.g]
*	*	*v	*v	*
==	==	==	==
*-	*-	*-	*-
!!!RDF**kern: l=long note in original notation
!!!RDF**kern: i=editorial accidental
!!!RDF**kern: V=start of tuplet marker
!!!RDF**kern: Z=end of tuplet marker
!!!ENC:	Jesse Rodin; Chris Gage 10-25-2012
!!!END:	2012/11/12/
!!!EED:	Jesse Rodin
!!!EEV:	2012/12/15/
!!!ONB:	Translated from MusicXML and edited on 2012/12/15/ by Craig Sapp
!!muse2ps: T^@{OPR}^u^@{ONM}{. }@{OTL}^C^@{COM}^i2I150v85,85,85,150Q8c120
